usr/share/icons/big-icons/symbolic/status/mymail-symbolic.svg

<svg version="1.1" viewBox="0 0 16 16" xmlns="http://www.w3.org/2000/svg">
 <path class="ColorScheme-Text" d="m2 2c-1.108 0-2 0.892-2 2v8c0 1.108 0.892 2 2 2h12c1.108 0 2-0.892 2-2v-8c0-1.108-0.892-2-2-2zm0 1h12c0.48888 0 0.87448 0.35406 0.96289 0.81641l-6.4238 5.1152c-0.30559 0.24335-0.77254 0.24335-1.0781 0l-6.4238-5.1152c0.088406-0.46235 0.47401-0.81641 0.96289-0.81641zm-1 2.0488 3.7051 2.9512-3.7051 2.9512v-5.9023zm14 0v5.9023l-3.7051-2.9512 3.7051-2.9512zm-9.502 3.584 1.1699 0.93164c0.73087 0.58201 1.9332 0.58201 2.6641 0l1.1699-0.93164 4.4609 3.5508c-0.08841 0.46235-0.47401 0.81641-0.96289 0.81641h-12c-0.48888 0-0.87448-0.35406-0.96289-0.81641l4.4609-3.5508z" color="#363636" fill="currentColor"/>
</svg>

<svg xmlns="http://www.w3.org/2000/svg" viewBox="0 0 16 16">
<path fill="currentColor" d="M2 2C.892 2 0 2.892 0 4v8c0 1.108.892 2 2 2h12c1.108 0 2-.892 2-2V4c0-1.108-.892-2-2-2zm0 1h12c.489 0 .874.354.963.816L8.539 8.932a.89.89 0 0 1-1.078 0L1.037 3.816A.98.98 0 0 1 2 3M1 5.049 4.705 8 1 10.951zm14 0v5.902L11.295 8zM5.498 8.633l1.17.931c.73.582 1.933.582 2.664 0l1.17-.931 4.46 3.55A.98.98 0 0 1 14 13H2a.98.98 0 0 1-.963-.816z" class="ColorScheme-Text" color="#fcfcfc"/>
</svg>
